X:1
T:Title
%%score ( 1 2 ) ( 3 4 )
L:1/8
Q:1/4=102
M:6/8
K:Bb
V:1 treble nm="Grand Piano, Soprano"
V:2 treble 
V:3 bass nm="Choir Pad, All for Jesus (Morgan)"
V:4 bass 
V:1
 [DF]2 [DF] [_D=E]2 [=DF] | [EG]2 [DF] [DF]2 [B,D] | [DF]2 [B,D] [CE]2 [A,C] | [B,D]6 | %4
w: By~Frederick~Augustus~Fillmore * * *||||
 [DF]2 [DF] [_D=E]2 [=DF] | [EG]2 [DF] [DF]2 [DB] | [CA]2 [CF] [CG]2 [C=E] | [CF]6 | [FA]3 [FB]3 | %9
w: |||||
 cB[FA] [FB]2 [DF] | [Fc]3 [Fc]3 | ed[Fc] [Fd]3 | [DB]3 [Fd]3 | fe[Fd] [Ge]2 [Gc] | %14
w: |||||
 BA[FB] [Fd]2 [Ec] | [DB]6- | [DB]3 z3 |] %17
w: |||
V:2
 x6 | x6 | x6 | x6 | x6 | x6 | x6 | x6 | x6 | .F3 z3 | x6 | .F3 z3 | x6 | .F3 z3 | .F3 z3 | x6 | %16
 x6 |] %17
V:3
 [B,,B,]2 [B,,B,] [B,,B,]2 [B,,B,] | [B,,B,]2 [B,,B,] [B,,B,]2 [B,,F,] | F,2 F, F,2 F, | [B,,F,]6 | %4
 [B,,B,]2 [B,,B,] [B,,G,]2 [B,,F,] | [B,,B,]2 [B,,B,] [B,,B,]2 [B,,F,] | %6
 [C,F,]2 [C,A,] [C,B,]2 [C,G,] | [F,A,]6 | [F,C]3 [F,D]3 | .E3 z3 | [F,A,]3 [F,B,]3 | .C3 z3 | %12
 B,3 [B,,B,]3 | [D,B,][C,A,][B,,B,] [E,B,]2 [E,E] | .D3 z3 | [B,,B,]6- | [B,,B,]3 z3 |] %17
V:4
 x6 | x6 | x6 | x6 | x6 | x6 | x6 | x6 | x6 | F,-[F,B,][F,C] [B,D]2 B, | x6 | %11
 F,-[F,B,][F,A,] [B,,B,]3 | x6 | x6 | F,-[F,C][F,D] [F,B,]2 [F,A,] | x6 | x6 |] %17

